X:5
T:Dove. WR1776.05, The
B:Wm.Randall CDs 1776
Z:vmp.Steve Mansfield 2015
M:6/8
L:1/8
W:Turn right hands cast off 1 Cu. turn left hands
W:cast off again lead up to the top cast off right and left
Q:3/8=90
K:G
g3 bgd | e3 gdc | Bdc BAG | A2G FED |
gdc Bd=F | E2g gfe | ded cBA | G3 G,3 :|
|: GBd =FEF | EGc efg | ded cBA | BAG FED |
C2g gfe | ded cBA | BAG FEF | G3 G,3 :|

